assets/images/avatar/Avatar 17.svg

<svg fill="none" height="128" viewBox="0 0 128 128" width="128" xmlns="http://www.w3.org/2000/svg" xmlns:xlink="http://www.w3.org/1999/xlink"><mask id="a" height="116" maskUnits="userSpaceOnUse" width="108" x="10" y="6"><path clip-rule="evenodd" d="m69.8396 6.78112c16.9896.26649 32.2844 10.59398 41.6364 24.78488 8.416 12.7707 7.272 28.7006 3.355 43.4859-3.709 13.9955-11.508 26.0961-23.8115 33.7221-14.4555 8.96-31.4785 16.466-47.3647 10.396-17.1529-6.555-29.1541-22.9267-32.6263-40.9628-3.34266-17.3626 6.4069-44.983 17.6447-58.6313 10.9797-13.33485 23.8981-13.06565 41.1664-12.79478z" fill="#eff6f7" fill-rule="evenodd"/></mask><g mask="url(#a)"><path clip-rule="evenodd" d="m69.8396 6.78112c16.9896.26649 32.2844 10.59398 41.6364 24.78488 8.416 12.7707 7.272 28.7006 3.355 43.4859-3.709 13.9955-11.508 26.0961-23.8114 33.7221-14.4556 8.96-31.4786 16.466-47.3648 10.396-17.1529-6.555-29.154-22.9267-32.6263-40.9628-3.34262-17.3626 4.2668-34.3253 15.5046-47.9736 10.9797-13.3349 26.0382-23.72335 43.3065-23.45248z" fill="#eff6f7" fill-rule="evenodd"/><path d="m34.9024 42.0552c4.5044-15.5429 21.9032-19.7425 33.7097-18.5357 5.3334.5456 17.4415 5.0805 19.968 18.7368 1.7097 9.2648-1.9444 12.349-3.8278 17.728-3.3249 9.4781-7.3539 11.2762-9.8804 13.7143-3.3524 3.203-9.7249 5.8179-15.0704 4.8335-.4724-.0853-4.1082-4.6537-10.1425-4.8213-6.6712-.2011-19.4895-15.3021-14.7566-31.6556z" fill="#28213d"/><path d="m48.9916 64.8178c0 8.5333 3.6267 18.2309-3.9619 25.2526-4.4038 4.0655-12.7665 6.1501-19.2 7.9878-11.2762 3.2248-13.6746 13.4708-15.7257 23.7138l97.31.466c0-6.991-2.014-17.323-9.4685-22.6286-6.0952-4.3398-15.8324-4.1051-21.5619-10.5752-3.1238-3.5261-4.8762-12.7421-3.4164-25.4659 1.2557-11.0141-23.9756-13.5772-23.9756 1.2495z" fill="#cc86d9"/><path d="m107.411 122.238-97.31-.46c.5089-2.545 1.0422-5.09 1.7158-7.516 1.4323.875 3.3737 1.088 5.1261 1.195 12.0594.735 54.598-8.594 63.5215-23.1375 5.5863 3.2884 12.6628 3.8583 17.4811 7.2777 7.4545 5.3148 9.4655 15.6468 9.4655 22.6408z" fill="#f2d6f6"/><path d="m49.0191 65.9546c.2529 7.4697 2.6849 15.6617-2.2217 22.1257 5.6106 2.8709 20.3154.9143 26.688-5.5771-1.0118-4.3155-1.3501-10.1974-.6857-17.2435-7.6861.2926-15.8873.4876-23.7806.6949z" fill="#353154" opacity=".2"/><path d="m38.6633 32.8087c-6.4762-12.4648 14.7078-25.21906 23.8415-15.7897 2.3833 2.4594 5.3273 8.7253 1.9139 11.1969-4.3642 3.1604-9.5634 4.6598-14.5706 6.4793-3.8858 1.4141-8.8595 2.5935-11.1848-1.8865z" fill="#28213d"/><path d="m86.2885 48.1108c.835 6.4-2.7063 8.9661-2.7063 14.144 0 8.9082-12.4648 20.3581-17.5878 20.419-7.2869.0671-13.9734-5.6929-16.573-10.1729-2.5417-4.3795-5.1809-11.9589-3.2061-16.9204 2.4076.5455 6.4701-5.4614 9.5665-10.3894 2.9745-4.7329 6.6621-6.4 10.2796-6.4 4.8915 0 5.2937 4.474 7.8903 4.8183 2.877.381 4.5714-2.4594 8.4633-1.9078 1.5573.2195 3.3432 2.368 3.8735 6.4092z" fill="#cc86d9"/><path d="m46.0873 56.3119c-.0274-.0945-1.0088-1.4354-1.405-1.984-.768-1.0636-2.947-2.6179-4.3824-.8046-1.1307 1.4263.3413 4.6933 2.2125 7.5185 1.7402 2.624 4.8762 4.5714 5.4644 4.6019s-1.5756-8.131-1.8895-9.3318z" fill="#cc86d9"/><g fill="#28213d"><path d="m55.5532 24.0102c-.2234-.0012-.4419-.0656-.6303-.1856-.1885-.12-.3392-.2909-.4347-.4928-.0956-.202-.1321-.4268-.1055-.6486.0267-.2219.1155-.4316.2563-.6052.2102-.2621 5.2662-6.4 10.627-10.3405.1248-.1012.2688-.1759.4233-.2198.1545-.0438.3163-.0557.4756-.0351.1593.0207.3127.0734.451.1552.1382.0817.2585.1906.3533.3202.0949.1296.1624.2772.1986.4337.0361.1565.0401.3187.0116.4767-.0285.1581-.0888.3087-.1772.4428-.0885.1341-.2032.2487-.3373.3371-5.1139 3.7425-10.1456 9.8652-10.1943 9.9261-.111.1362-.2508.246-.4095.3214s-.3322.1145-.5079.1144z"/><path d="m49.3879 23.102c-.2549.0002-.5029-.0821-.7071-.2347l-10.5904-7.9055c-.2382-.1927-.3925-.4702-.4306-.7742-.038-.304.043-.6109.2263-.8564.1833-.2456.4545-.4106.7567-.4606.3023-.0499.6122.0191.8647.1926l10.5905 7.9055c.1987.1493.3454.3573.4195.5945.0741.2373.0717.4919-.0068.7277-.0785.2359-.2292.441-.4306.5866-.2015.1455-.4437.2241-.6922.2245z"/></g></g></svg>

<svg width="128" height="128" viewBox="0 0 128 128" fill="none" xmlns="http://www.w3.org/2000/svg">
<mask id="mask0_457_1640" style="mask-type:alpha" maskUnits="userSpaceOnUse" x="10" y="6" width="108" height="116">
<path fill-rule="evenodd" clip-rule="evenodd" d="M69.8396 6.78112C86.8292 7.04761 102.124 17.3751 111.476 31.566C119.892 44.3367 118.748 60.2666 114.831 75.0519C111.122 89.0474 103.323 101.148 91.0195 108.774C76.564 117.734 59.541 125.24 43.6548 119.17C26.5019 112.615 14.5007 96.2433 11.0285 78.2072C7.68584 60.8446 17.4354 33.2242 28.6732 19.5759C39.6529 6.24105 52.5713 6.51025 69.8396 6.78112Z" fill="#EFF6F7"/>
</mask>
<g mask="url(#mask0_457_1640)">
<path fill-rule="evenodd" clip-rule="evenodd" d="M69.8396 6.78112C86.8292 7.04761 102.124 17.3751 111.476 31.566C119.892 44.3367 118.748 60.2666 114.831 75.0519C111.122 89.0474 103.323 101.148 91.0196 108.774C76.564 117.734 59.541 125.24 43.6548 119.17C26.5019 112.615 14.5008 96.2433 11.0285 78.2072C7.68588 60.8446 15.2953 43.8819 26.5331 30.2336C37.5128 16.8987 52.5713 6.51025 69.8396 6.78112Z" fill="#EFF6F7"/>
<path d="M34.9024 42.0552C39.4068 26.5123 56.8056 22.3127 68.6121 23.5195C73.9455 24.0651 86.0536 28.6 88.5801 42.2563C90.2898 51.5211 86.6357 54.6053 84.7523 59.9843C81.4274 69.4624 77.3984 71.2605 74.8719 73.6986C71.5195 76.9016 65.147 79.5165 59.8015 78.5321C59.3291 78.4468 55.6933 73.8784 49.659 73.7108C42.9878 73.5097 30.1695 58.4087 34.9024 42.0552Z" fill="#28213D"/>
<path d="M48.9916 64.8178C48.9916 73.3511 52.6183 83.0487 45.0297 90.0704C40.6259 94.1359 32.2632 96.2205 25.8297 98.0582C14.5535 101.283 12.1551 111.529 10.104 121.772L107.414 122.238C107.414 115.247 105.4 104.915 97.9455 99.6094C91.8503 95.2696 82.1131 95.5043 76.3836 89.0342C73.2598 85.5081 71.5074 76.2921 72.9672 63.5683C74.2229 52.5542 48.9916 49.9911 48.9916 64.8178Z" fill="#CC86D9"/>
<path d="M107.411 122.238L10.101 121.778C10.6099 119.233 11.1432 116.688 11.8168 114.262C13.2491 115.137 15.1905 115.35 16.9429 115.457C29.0023 116.192 71.5409 106.863 80.4644 92.3195C86.0507 95.6079 93.1272 96.1778 97.9455 99.5972C105.4 104.912 107.411 115.244 107.411 122.238Z" fill="#F2D6F6"/>
<g style="mix-blend-mode:multiply" opacity="0.2">
<path d="M49.0191 65.9546C49.272 73.4243 51.704 81.6163 46.7974 88.0803C52.408 90.9512 67.1128 88.9946 73.4854 82.5032C72.4736 78.1877 72.1353 72.3058 72.7997 65.2597C65.1136 65.5523 56.9124 65.7473 49.0191 65.9546Z" fill="#353154"/>
</g>
<path d="M38.6633 32.8087C32.1871 20.3439 53.3711 7.58964 62.5048 17.019C64.8881 19.4784 67.8321 25.7443 64.4187 28.2159C60.0545 31.3763 54.8553 32.8757 49.8481 34.6952C45.9623 36.1093 40.9886 37.2887 38.6633 32.8087Z" fill="#28213D"/>
<path d="M86.2885 48.1108C87.1235 54.5108 83.5822 57.0769 83.5822 62.2548C83.5822 71.163 71.1174 82.6129 65.9944 82.6738C58.7075 82.7409 52.021 76.9809 49.4214 72.5009C46.8797 68.1214 44.2405 60.542 46.2153 55.5805C48.6229 56.126 52.6854 50.1191 55.7818 45.1911C58.7563 40.4582 62.4439 38.7911 66.0614 38.7911C70.9529 38.7911 71.3551 43.2651 73.9517 43.6094C76.8287 43.9904 78.5231 41.15 82.415 41.7016C83.9723 41.9211 85.7582 44.0696 86.2885 48.1108Z" fill="#CC86D9"/>
<path d="M46.0873 56.3119C46.0599 56.2174 45.0785 54.8765 44.6823 54.3279C43.9143 53.2643 41.7353 51.71 40.2999 53.5233C39.1692 54.9496 40.6412 58.2166 42.5124 61.0418C44.2526 63.6658 47.3886 65.6132 47.9768 65.6437C48.565 65.6742 46.4012 57.5127 46.0873 56.3119Z" fill="#CC86D9"/>
<path d="M55.5532 24.0102C55.3298 24.009 55.1113 23.9446 54.9229 23.8246C54.7344 23.7046 54.5837 23.5337 54.4882 23.3318C54.3926 23.1298 54.3561 22.905 54.3827 22.6832C54.4094 22.4613 54.4982 22.2516 54.639 22.078C54.8492 21.8159 59.9052 15.678 65.266 11.7375C65.3908 11.6363 65.5348 11.5616 65.6893 11.5177C65.8438 11.4739 66.0056 11.462 66.1649 11.4826C66.3242 11.5033 66.4776 11.556 66.6159 11.6378C66.7541 11.7195 66.8744 11.8284 66.9692 11.958C67.0641 12.0876 67.1316 12.2352 67.1678 12.3917C67.2039 12.5482 67.2079 12.7104 67.1794 12.8684C67.1509 13.0265 67.0906 13.1771 67.0022 13.3112C66.9137 13.4453 66.799 13.5599 66.6649 13.6483C61.551 17.3908 56.5193 23.5135 56.4706 23.5744C56.3596 23.7106 56.2198 23.8204 56.0611 23.8958C55.9024 23.9712 55.7289 24.0103 55.5532 24.0102V24.0102Z" fill="#28213D"/>
<path d="M49.3879 23.102C49.133 23.1022 48.885 23.0199 48.6808 22.8673L38.0904 14.9618C37.8522 14.7691 37.6979 14.4916 37.6598 14.1876C37.6218 13.8836 37.7028 13.5767 37.8861 13.3312C38.0694 13.0856 38.3406 12.9206 38.6428 12.8706C38.9451 12.8207 39.255 12.8897 39.5075 13.0632L50.098 20.9687C50.2967 21.118 50.4434 21.326 50.5175 21.5632C50.5916 21.8005 50.5892 22.0551 50.5107 22.2909C50.4322 22.5268 50.2815 22.7319 50.0801 22.8775C49.8786 23.023 49.6364 23.1016 49.3879 23.102V23.102Z" fill="#28213D"/>
</g>
</svg>
